public/swb_froid.svg

<svg  xmlns="http://www.w3.org/2000/svg"  width="24"  height="24"  viewBox="0 0 24 24"  fill="none"  stroke="currentColor"  stroke-width="2"  stroke-linecap="round"  stroke-linejoin="round"  class="icon icon-tabler icons-tabler-outline icon-tabler-snowflake"><path stroke="none" d="M0 0h24v24H0z" fill="none"/><path d="M10 4l2 1l2 -1" /><path d="M12 2v6.5l3 1.72" /><path d="M17.928 6.268l.134 2.232l1.866 1.232" /><path d="M20.66 7l-5.629 3.25l.01 3.458" /><path d="M19.928 14.268l-1.866 1.232l-.134 2.232" /><path d="M20.66 17l-5.629 -3.25l-2.99 1.738" /><path d="M14 20l-2 -1l-2 1" /><path d="M12 22v-6.5l-3 -1.72" /><path d="M6.072 17.732l-.134 -2.232l-1.866 -1.232" /><path d="M3.34 17l5.629 -3.25l-.01 -3.458" /><path d="M4.072 9.732l1.866 -1.232l.134 -2.232" /><path d="M3.34 7l5.629 3.25l2.99 -1.738" /></svg>

<?xml version="1.0" encoding="UTF-8" standalone="no"?>
<svg
   width="1000"
   height="1000"
   viewBox="0 0 24 24"
   fill="none"
   stroke="currentColor"
   stroke-width="2"
   stroke-linecap="round"
   stroke-linejoin="round"
   class="icon icon-tabler icons-tabler-outline icon-tabler-snowflake"
   version="1.1"
   id="svg13"
   sodipodi:docname="swb_froid.svg"
   inkscape:version="1.4 (86a8ad7, 2024-10-11)"
   xmlns:inkscape="http://www.inkscape.org/namespaces/inkscape"
   xmlns:sodipodi="http://sodipodi.sourceforge.net/DTD/sodipodi-0.dtd"
   xmlns="http://www.w3.org/2000/svg"
   xmlns:svg="http://www.w3.org/2000/svg">
  <defs
     id="defs13" />
  <sodipodi:namedview
     id="namedview13"
     pagecolor="#ffffff"
     bordercolor="#000000"
     borderopacity="0.25"
     inkscape:showpageshadow="2"
     inkscape:pageopacity="0.0"
     inkscape:pagecheckerboard="0"
     inkscape:deskcolor="#d1d1d1"
     showguides="false"
     inkscape:zoom="2.9720582"
     inkscape:cx="365.90804"
     inkscape:cy="-54.675915"
     inkscape:window-width="1920"
     inkscape:window-height="1009"
     inkscape:window-x="1912"
     inkscape:window-y="-8"
     inkscape:window-maximized="1"
     inkscape:current-layer="svg13" />
  <path
     stroke="none"
     d="M 0,0 H 24 V 24 H 0 Z"
     fill="none"
     id="path1" />
  <path
     d="m 10,4 2,1 2,-1"
     id="path2" />
  <path
     d="m 12,2 v 6.5 l 3,1.72"
     id="path3" />
  <path
     d="M 17.928,6.268 18.062,8.5 19.928,9.732"
     id="path4" />
  <path
     d="m 20.66,7 -5.629,3.25 0.01,3.458"
     id="path5" />
  <path
     d="M 19.928,14.268 18.062,15.5 17.928,17.732"
     id="path6" />
  <path
     d="m 20.66,17 -5.629,-3.25 -2.99,1.738"
     id="path7" />
  <path
     d="m 14,20 -2,-1 -2,1"
     id="path8" />
  <path
     d="M 12,22 V 15.5 L 9,13.78"
     id="path9" />
  <path
     d="M 6.072,17.732 5.938,15.5 4.072,14.268"
     id="path10" />
  <path
     d="M 3.34,17 8.969,13.75 8.959,10.292"
     id="path11" />
  <path
     d="M 4.072,9.732 5.938,8.5 6.072,6.268"
     id="path12" />
  <path
     d="m 3.34,7 5.629,3.25 2.99,-1.738"
     id="path13" />
</svg>
